src/assets/duotone/Video.svg

<svg width="24" height="24" viewBox="0 0 24 24"  xmlns="http://www.w3.org/2000/svg">
<path opacity="0.4" d="M13 3.25H7C3.58 3.25 2.25 4.58 2.25 8V16C2.25 18.3 3.5 20.75 7 20.75H13C16.42 20.75 17.75 19.42 17.75 16V8C17.75 4.58 16.42 3.25 13 3.25Z" />
<path d="M11.5001 11.3801C12.5384 11.3801 13.3801 10.5384 13.3801 9.50012C13.3801 8.46182 12.5384 7.62012 11.5001 7.62012C10.4618 7.62012 9.62012 8.46182 9.62012 9.50012C9.62012 10.5384 10.4618 11.3801 11.5001 11.3801Z" />
<path d="M21.65 6.17011C21.24 5.96011 20.38 5.72011 19.21 6.54011L17.73 7.58011C17.74 7.72011 17.75 7.85011 17.75 8.00011V16.0001C17.75 16.1501 17.73 16.2801 17.73 16.4201L19.21 17.4601C19.83 17.9001 20.37 18.0401 20.8 18.0401C21.17 18.0401 21.46 17.9401 21.65 17.8401C22.06 17.6301 22.75 17.0601 22.75 15.6301V8.38011C22.75 6.95011 22.06 6.38011 21.65 6.17011Z" />
</svg>

<?xml version="1.0" encoding="UTF-8"?>
<svg width="24" height="24" viewBox="0 0 24 24" xmlns="http://www.w3.org/2000/svg">
 <path d="m13 3.25h-6c-3.42 0-4.75 1.33-4.75 4.75v8c0 2.3 1.25 4.75 4.75 4.75h6c3.42 0 4.75-1.33 4.75-4.75v-8c0-3.42-1.33-4.75-4.75-4.75z" opacity=".4"/>
 <path d="m11.5 11.38c1.0383 0 1.88-0.8417 1.88-1.88 0-1.0383-0.8417-1.88-1.88-1.88s-1.88 0.8417-1.88 1.88c0 1.0383 0.84168 1.88 1.88 1.88z"/>
 <path d="m21.65 6.1701c-0.41-0.21-1.27-0.45-2.44 0.37l-1.48 1.04c0.01 0.14 0.02 0.27 0.02 0.42v8c0 0.15-0.02 0.28-0.02 0.42l1.48 1.04c0.62 0.44 1.16 0.58 1.59 0.58 0.37 0 0.66-0.1 0.85-0.2 0.41-0.21 1.1-0.78 1.1-2.21v-7.25c0-1.43-0.69-2-1.1-2.21z"/>
</svg>
